jimu.js/css/fonts/drawbox.svg

<?xml version="1.0" standalone="no"?>
<!DOCTYPE svg PUBLIC "-//W3C//DTD SVG 1.1//EN" "http://www.w3.org/Graphics/SVG/1.1/DTD/svg11.dtd" >
<svg xmlns="http://www.w3.org/2000/svg">
<metadata>Generated by IcoMoon</metadata>
<defs>
<font id="icomoon" horiz-adv-x="1024">
<font-face units-per-em="1024" ascent="960" descent="-64" />
<missing-glyph horiz-adv-x="1024" />
<glyph unicode="&#x20;" horiz-adv-x="512" d="" />
<glyph unicode="&#xe900;" glyph-name="text" d="M160.685-64h-160.685l448.457 1024h131.469l444.074-1024h-163.606l-105.176 251.661h-490.819l-103.715-251.661zM315.526 313.492h387.104l-192.821 480.181-194.283-480.181z" />
<glyph unicode="&#xe901;" glyph-name="clear" d="M512 140.797c28.25 0 51.203 22.953 51.203 51.203v409.601c0 28.264-22.953 51.196-51.203 51.196-28.264 0-51.196-22.939-51.196-51.196v-409.601c0-28.25 22.931-51.203 51.196-51.203zM921.601 857.601h-153.601v51.196c0 28.264-22.953 51.203-51.203 51.203h-409.594c-28.264 0-51.196-22.939-51.196-51.203v-51.196h-153.601c-28.286 0-51.203-22.939-51.203-51.203s22.917-51.196 51.203-51.196v-716.797c0-56.55 45.848-102.406 102.399-102.406h614.399c56.55 0 102.406 45.848 102.406 102.406v716.797c28.25 0 51.196 22.939 51.196 51.196s-22.953 51.203-51.203 51.203zM819.203 38.406h-614.399v716.797h614.399v-716.797zM358.406 140.797c28.264 0 51.196 22.953 51.196 51.203v409.601c0 28.264-22.939 51.196-51.196 51.196s-51.203-22.939-51.203-51.196v-409.601c0-28.25 22.939-51.203 51.203-51.203zM665.601 140.797c28.25 0 51.196 22.953 51.196 51.203v409.601c0 28.264-22.946 51.196-51.196 51.196s-51.203-22.939-51.203-51.196v-409.601c0.007-28.25 22.953-51.203 51.203-51.203z" />
<glyph unicode="&#xe904;" glyph-name="elliptic" d="M989.867 393.956c0-158.665-213.948-287.289-477.867-287.289s-477.867 128.624-477.867 287.289c0 158.665 213.948 287.289 477.867 287.289s477.867-128.624 477.867-287.289z" />
<glyph unicode="&#xe905;" glyph-name="rectangle" d="M51.2 755.2h924.444v-600.178h-924.444v600.178z" />
<glyph unicode="&#xe907;" glyph-name="circle" d="M1024 448c0-282.77-229.23-512-512-512s-512 229.23-512 512c0 282.77 229.23 512 512 512s512-229.23 512-512z" />
<glyph unicode="&#xe908;" glyph-name="curve" horiz-adv-x="916" d="M107.789-37.053h-107.789c2.695 385.347 207.495 441.937 388.042 490.442 188.632 51.2 369.179 102.4 420.379 487.747l107.789-13.474c-61.979-455.411-304.505-522.779-498.526-576.674-180.547-51.2-307.2-86.232-309.895-388.042z" />
<glyph unicode="&#xe90a;" glyph-name="irregular" horiz-adv-x="1205" d="M199.358 761.82c-103.506-105.592 118.539-155.473 60.405-305.861s-373.401-251.703-216.365-432.671c157.036-180.968 268.282 100.681 467.605 68.118s165.294-211.393 356.008-137.797c190.714 73.595-81.729 329.466 34.243 417.467s352.67 160.657 294.357 279.998c-58.314 119.341-140.814 48.421-277.281 34.672s-10.333 274.254-146.946 274.254c-136.613 0-117.526-87.138-232.208-213.157s-236.311 120.57-339.817 14.978z" />
<glyph unicode="&#xe90b;" glyph-name="line" horiz-adv-x="1052" d="M96.17 955.947l939.344-939.344-78.279-78.279-939.344 939.344 78.279 78.279z" />
<glyph unicode="&#xe90c;" glyph-name="pin" horiz-adv-x="569" d="M0 759.866c0 0 4.605 200.134 289.63 200.134s279.25-200.134 279.25-200.134v-595.325l-279.25-228.54-289.63 228.54v595.325zM284.44 521.143c90.948 0 164.676 72.044 164.676 160.914s-73.728 160.914-164.676 160.914c-90.948 0-164.676-72.044-164.676-160.914s73.728-160.914 164.676-160.914z" />
<glyph unicode="&#xe90d;" glyph-name="polygon" horiz-adv-x="1159" d="M0 521.101v-574.14h1015.134v231.011l-326.013 326.013 456.014 456.014h-761.131z" />
<glyph unicode="&#xe90e;" glyph-name="polygonal" horiz-adv-x="1078" d="M105.095-53.221l-102.4 32.337 229.053 679.074 517.389-347.621 223.663 641.347 102.4-37.726-269.474-770.695-517.389 347.621z" />
<glyph unicode="&#xe910;" glyph-name="triangle" horiz-adv-x="1086" d="M543.030 960l543.030-1024h-1086.061z" />
</font></defs></svg>

<svg xmlns="http://www.w3.org/2000/svg"><defs><font id="icomoon" horiz-adv-x="1024"><font-face units-per-em="1024" ascent="960" descent="-64"/><glyph horiz-adv-x="512"/><glyph unicode="" glyph-name="text" d="M160.685-64H0L448.457 960h131.469L1024-64H860.394L755.218 187.661H264.399L160.684-64zm154.841 377.492H702.63L509.809 793.673 315.526 313.492z"/><glyph unicode="" glyph-name="clear" d="M512 140.797c28.25 0 51.203 22.953 51.203 51.203v409.601c0 28.264-22.953 51.196-51.203 51.196-28.264 0-51.196-22.939-51.196-51.196V192c0-28.25 22.931-51.203 51.196-51.203zm409.601 716.804H768v51.196C768 937.061 745.047 960 716.797 960H307.203c-28.264 0-51.196-22.939-51.196-51.203v-51.196H102.406c-28.286 0-51.203-22.939-51.203-51.203s22.917-51.196 51.203-51.196V38.405c0-56.55 45.848-102.406 102.399-102.406h614.399c56.55 0 102.406 45.848 102.406 102.406v716.797c28.25 0 51.196 22.939 51.196 51.196s-22.953 51.203-51.203 51.203zM819.203 38.406H204.804v716.797h614.399V38.406zM358.406 140.797c28.264 0 51.196 22.953 51.196 51.203v409.601c0 28.264-22.939 51.196-51.196 51.196s-51.203-22.939-51.203-51.196V192c0-28.25 22.939-51.203 51.203-51.203zm307.195 0c28.25 0 51.196 22.953 51.196 51.203v409.601c0 28.264-22.946 51.196-51.196 51.196s-51.203-22.939-51.203-51.196V192c.007-28.25 22.953-51.203 51.203-51.203z"/><glyph unicode="" glyph-name="elliptic" d="M989.867 393.956c0-158.665-213.948-287.289-477.867-287.289S34.133 235.291 34.133 393.956 248.081 681.245 512 681.245s477.867-128.624 477.867-287.289z"/><glyph unicode="" glyph-name="rectangle" d="M51.2 755.2h924.444V155.022H51.2V755.2z"/><glyph unicode="" glyph-name="circle" d="M1024 448c0-282.77-229.23-512-512-512S0 165.23 0 448s229.23 512 512 512 512-229.23 512-512z"/><glyph unicode="" glyph-name="curve" horiz-adv-x="916" d="M107.789-37.053H0c2.695 385.347 207.495 441.937 388.042 490.442 188.632 51.2 369.179 102.4 420.379 487.747l107.789-13.474c-61.979-455.411-304.505-522.779-498.526-576.674-180.547-51.2-307.2-86.232-309.895-388.042z"/><glyph unicode="" glyph-name="irregular" horiz-adv-x="1205" d="M199.358 761.82C95.852 656.228 317.897 606.347 259.763 455.959S-113.638 204.256 43.398 23.288 311.68 123.969 511.003 91.406 676.297-119.987 867.011-46.391c190.714 73.595-81.729 329.466 34.243 417.467s352.67 160.657 294.357 279.998c-58.314 119.341-140.814 48.421-277.281 34.672S907.997 960 771.384 960s-117.526-87.138-232.208-213.157-236.311 120.57-339.817 14.978z"/><glyph unicode="" glyph-name="line" horiz-adv-x="1052" d="M96.17 955.947l939.344-939.344-78.279-78.279L17.891 877.668l78.279 78.279z"/><glyph unicode="" glyph-name="pin" horiz-adv-x="569" d="M0 759.866S4.605 960 289.63 960s279.25-200.134 279.25-200.134V164.541L289.63-63.999 0 164.541v595.325zm284.44-238.723c90.948 0 164.676 72.044 164.676 160.914S375.388 842.971 284.44 842.971s-164.676-72.044-164.676-160.914 73.728-160.914 164.676-160.914z"/><glyph unicode="" glyph-name="polygon" horiz-adv-x="1159" d="M0 521.101v-574.14h1015.134v231.011L689.121 503.985l456.014 456.014H384.004z"/><glyph unicode="" glyph-name="polygonal" horiz-adv-x="1078" d="M105.095-53.221L2.695-20.884 231.748 658.19l517.389-347.621L972.8 951.916l102.4-37.726-269.474-770.695-517.389 347.621z"/><glyph unicode="" glyph-name="triangle" horiz-adv-x="1086" d="M543.03 960L1086.06-64H-.001z"/></font></defs></svg>
